X:1
T:In amor che
T:In amor che
T:Loreto Vittori
T:Source : Arie a voce sola del Cavalier Loreto Vittorio---Venetia---A.Vincenti---1649. Editor André Vierendeels (20/10/15).
T:Notes : Original clefs C1, F4 Figures in BC are notated in original print
C:Vittorio Loreto
%%score 1 2
L:1/8
Q:1/4=120
M:4/4
K:C
V:1 treble nm="Soprano" snm="S"
V:2 bass nm="BC" snm="BC"
V:1
 cA e3 dcB | cB/c/ d/e/d/c/ ^GE e2- | ef g3 f de | fe c/B/c/d/ ef/e/ d2 | c2 EF G2 T^G.^F/G/ | %5
w: In a- mor che stra- va-|gan- * * * * * * * za far|_ so- a- vi le _|ca- * te- * * * * * * *|ne e te- ner vi- ve le|
w: La spe- ran- za, e un|dol- * * ce'in- * * * gan- no, che|_ fa dol- ce an- *|co'ol do- lo- * * * * * * *|re, e con- du- ce'a mor- te'un|
 AEAB c2 T^cB/c/ | dA d3 c B2- | B2 A4 Ac | A4 G2 Bc | d2 T^d^c/=d/ eB e2- | ed c4 B2- | B2 Bd B4 | %12
w: pe- ne, e te- ner vi- ve le|pe- ne, in vir- tu|_ d'u- na spe-|ran- za, e te-|ner vi- ve le pe- ne, in|_ vir- tu d'u-|* na spe- ran-|
w: co- re, e con- du- ce'a mor- te'un|co- re, pel sen- tie-|* ro del af-|fan- no, e- con|du- ce'a mor- te'un co- re, pel|_ sen- tie- ro|_ del af- fan-|
 A8!fine! :: z2 ee Bcde | cAcc de e>d | eeef gedc | ddBB AG^FG | G2 ^F2 E2 ee | dd cc/c/ BBAA | %19
w: za.|U- na spe- me lu- sin-|ghie- ra po- ne'in cre- di- to'il cor|men- to i pen- sier fon- da sul|ver- ro quel a- man- te che piu|spe- * ra ser- ba'in|van la fe- de'in- ti- e- ra sen- za|
w: no.|E mor- ta- l'e fie- ra|dan- no che l'a- man- te che si|sfa- ce, si da- reb- be'al- lo- ra|pa- ce. Che spe- rar piu non gl'a-|van- * ze,- che l'a-|man- te che si sfa- ce, si da reb-|
 G^FGE BB^dB!D.C.! | e e2 d/e/ ^cAdc | Bcde ^f2 e2 |[M:2/4] d4 :| %23
w: mai po- ter gio- i- re, chi nel|sen' d'o- gni mar- ti- re me- stre|sem- pre la co- stan- *|za.|
w: be'al- lo- ra pa- ce, che spe- rar|piu non gl'a- * van- za, che spe-|rar piu non gl'a- van- *|za.|
V:2
 A,4 ^G,4 | A,2 D,2 E,3 D, |"^#" C,3 B,, A,,2 G,,2 |"^4   3" F,,2 E,,F,, G,,4 |"^#6" C,4 B,,4 | %5
"^#6" A,,2 A,G, F,2 E,2 | D,3 C, B,,3 A,, | G,,2 C,2 D,2 E,C, |"^4   3" D,4 G,,2 G,2 | %9
"^#" ^F,4 E,2 ^G,2 | A,3 G, F,3 E, |"^4   3" D,2 F,D, E,4 | A,,8 :: A,4 ^G,4 | A,4 G,E, F,2 | %15
 E,3 D, C,2 B,,A,, | G,,4 A,,4 |"^4   3" B,,4 E,,2 E,2 | ^F,2 D,2 G,2 D,2 | E,2 C,2 B,,2 B,A, | %20
 ^G,2 E,2 A,2 ^F,2 |"^4   3" G,4 A,4 |[M:2/4] D,4 :| %23

